z_dist/img/bg/desktop/dark-about-footer-wave.svg

<svg width="1920" height="454" viewBox="0 0 1920 454" fill="none" xmlns="http://www.w3.org/2000/svg">
<path fill-rule="evenodd" clip-rule="evenodd" d="M80 79.6699C3.23438 100.466 0 106.866 0 106.866V222V222.062V454H1920V222.062V222V111.66L1840 104.46C1804.38 101.254 1755.28 94.5755 1696.59 86.5913C1623.45 76.6431 1535.42 64.6682 1440 54.8599C1396.18 50.3561 1354.9 42.8493 1311.72 34.998C1285.31 30.1947 1258.18 25.2623 1229.33 20.8099C1163.87 7.86689 1095.77 6.06688 1027.88 4.27247C1005.2 3.67284 982.533 3.07384 960 2.05987C800 -5.14013 651.333 7.28444 480 27.6622C429.557 33.6617 380.799 38.8339 335.146 43.6767C225.736 55.2828 134.165 64.9965 80 79.6699Z" fill="#141414"/>
</svg>

<svg width="1920" height="454" fill="none" xmlns="http://www.w3.org/2000/svg"><path fill-rule="evenodd" clip-rule="evenodd" d="M80 79.67C3.234 100.466 0 106.866 0 106.866V454h1920V111.66l-80-7.2c-35.62-3.206-84.72-9.884-143.41-17.869-73.14-9.948-161.17-21.923-256.59-31.731-43.82-4.504-85.1-12.01-128.28-19.862-26.41-4.803-53.54-9.736-82.39-14.188-65.46-12.943-133.56-14.743-201.45-16.538-22.68-.6-45.347-1.198-67.88-2.212-160-7.2-308.667 5.224-480 25.602-50.443 6-99.201 11.172-144.854 16.015C225.736 55.283 134.165 64.997 80 79.67z" fill="#141414"/></svg>
